alpha-m-box-outline.svg

<svg fill="currentColor" viewBox="0 0 24 24"><path d="M9 7h6a2 2 0 0 1 2 2v8h-2V9h-2v7h-2V9H9v8H7V9a2 2 0 0 1 2-2M5 3h14a2 2 0 0 1 2 2v14a2 2 0 0 1-2 2H5a2 2 0 0 1-2-2V5a2 2 0 0 1 2-2m0 2v14h14V5z"/></svg>

<svg  viewBox="0 0 24 24" fill="currentColor"><path  d="M9,7H15A2,2 0 0,1 17,9V17H15V9H13V16H11V9H9V17H7V9A2,2 0 0,1 9,7M5,3H19A2,2 0 0,1 21,5V19A2,2 0 0,1 19,21H5A2,2 0 0,1 3,19V5A2,2 0 0,1 5,3M5,5V19H19V5H5Z"/></svg>
